!!!OTL: LIEB ES SEHR ZU ZIEHEN
!!!ARE: Europa, Mitteleuropa, Deutschland, Anclam
!!!SCT: Z0202
!!!YEM: Copyright 1995, estate of Helmut Schaffrath.
**kern
*ICvox
*Ivox
*M4/4
*k[]
*C:
=1
{4c
4c
4c
4c
=2
2e
2c}
=3
{4g
4g
4a
4g
=4
1e}
=5
{4d
4d
4e
4f#
=6
2g
2b}
=7
{4dd
4dd
4cc
4f#
=8
2g
2r}
=9
{4g
4g
4a
4b
=10
4cc
4g
2g}
=11
{4a
4g
4f
4e
=12
4e
4d
2d}
=13
{4c
4c
4c
4c
=14
4e
4c}
{4c
4c
=15
2a
2a
=16
1g}
=17
{4g
8g
8g
4a
4b
=18
4cc
4e}
{4a
4g
=19
2g
4f
4d
=20
1c}
==
!!!AGN: Handwerker - Lied, Handwerks - Burschen
!! Im Basschluessel notiert!
!!!ONB: ESAC (Essen Associative Code) Database: ZUCCAL
!!!AMT: simple quadruple
!!!AIN: vox
!!!EED: Helmut Schaffrath
!!!EEV: 1.0
*-
